; Commando by Rob Hubbard
; YM3812 MML format
; First 30 seconds, 3 voices

; Voice 1: Lead melody
MML@0
T120
O5
L8
V1
; Commando by Rob Hubbard
; YM3812 MML format
; First 30 seconds, 3 voices

; Voice 1: Lead melody
MML@0
T120
O5
L8
V1
r8g8f+8e8d+8c8b8a8g8f+8e8d+8c8b8a8g8f+8e8d+8c8b8a8g8f+8e8d+8c8b8a8g8f+8e8d+8c8b8a8g8f+8e8d+8c8b8a8g8f+8e8d+8c8b8a8g8f+8e8d+8c8b8a8g8f+8e8d+8c8b8a8g8f+8e8d+8c8b8a8g8f+8e8d+8c8b8a8g8f+8e8d+8c8b8a8g8f+8e8d+8c8b8a8g8f+8e8d+8c8b8a8g8f+8e8d+8c8b8a8g8f+8e8d+8c8b8a8g8f+8e8d+8c8b8a8g8f+8e8d+8c8b8a8g8f+8e8d+8c8b8a8g8f+8e8d+8c8b8a8g8f+8e8d+8c8b8a8g8f+8e8d+8c8b8a8g8f+8e8d+8c8b8a8g8f+8e8d+8c8b8a8g8f+8e8d+8c8b8a8g8f+8e8d+8c8b8a8g8f+8e8d+8c8b8a8g8f+8e8d+8c8b8a8g8f+8e8d+8c8b8a8g8f+8e8d+8c8b8a8g8f+8e8d+8c8b8a8g8f+8e8d+8c8b8a8g8f+8e8d+8c8b8a8g8f+8e8d+8c8b8a8g8f+8e8d+8c8b8a8g8f+8e8d+8c8b8a8g8f+8e8d+8c8b8a8g8f+8e8d+8c8b8a8g8f+8e8d+8c8b8a8g8f+8e8d+8c8b8a8g8f+8e8d+8c8b8a8g8f+8e8d+8c8b8a8g8f+8e8d+


